X:79
T:Bouzer Castle
M:6/8
L:1/8
C:Walsh, 1754
S:Colin Hume's website,  colinhume.com  - chords can also be printed below the stave.
Q:3/8=98
K:D
"D"F2A- AFA | "G"B2d- dBG | "D"F2A- AFD | "A"E3A,3 |\
"D"F2A- AFA | "G"B2d- dBd | "D"faf "A"ecA | "D"d3D3 ||
"D"f2a- afd | "A"c2e- eAG | "D"F2A- AFD | "A"E3A,3 |\
"D"F2A- AFA | "G"B2d- dBd | "D"faf "A"ecA | "D"d3D3 |]

